X:1
T:Huntsman's Chorus, The
M:2/4
L:1/8
Q:"Allegro"
B:Köhler’s Violin Repository, Book 2, 1881-1885; p. 122
Z:AK/Fiddler's Companion
K:D
A|d2 (d/e/f/g/)|a2 .f.f|eaea|f/g/f/e/ dA|d2 (d/e/f/g/)|a2 .f.f|eac'b|a3:||
A|[d2f2] [df][df]|[F2d2] [Fd][Fd]|[A2g2] [Ag][Ag]|[c2e2] [ce][ce]|[d2f2][df][df]|[FD2d2][Fd][Fd]|[A2g2][Ag][Ag]|[A3e3]A|
f2ff|g2 ff|ee (f/e/)d/e/|f2 dA|f2 ff|(ag)ff|(f/e/)d/e/ fe|d3A|
AA/A/ AA/A/|AA/A/ AA/A/|d2 Af|d2 Af|
(a/g/)e (a/g/)e|(a/g/e) (a/g/e)|d2 Af|d2Af|
(a/g/)e (a/g/e)|(a/g/e) (a/g/e)|fd/f/ a2|fd/f/ a2|
fd/d/d df|e4|d2 Af|d2 Af|(a/g/)e (a/g/)e|(a/g/)e (a/g/)e|
d2 Af|d2 Af|(a/g/)e (a/g/)e|(a/g/)e (a/g/)e|
fd/f/ a2|fd/f/ a2|fd/d/ dd|d2 zA/A/|
AF/F/ Fd/d/|dA/A/ Af/f/|fdfa|d'z d'z|[F4d4]||

